media/img/author-noun-banana-mobile.svg

<svg width="196" height="212" viewBox="0 0 196 212" fill="none" xmlns="http://www.w3.org/2000/svg">
<path d="M126.831 27.2321C120.374 25.5777 113.697 23.8667 107.944 19.9667C105.136 18.0633 102.722 15.7456 100.384 13.5063C99.0877 12.2625 97.7879 11.0145 96.4255 9.84622C92.3282 6.33943 88.7236 4.60555 86.0106 4.83422C84.5371 4.95615 83.267 5.67881 82.1272 7.04112C80.6459 8.81549 80.6918 10.1111 80.8574 10.9357C81.9177 16.3339 92.9523 22.1747 100.252 26.0401C104.076 28.0651 107.096 29.6622 108.654 31.0674C111.724 33.8327 113.755 37.4322 115.493 40.9085C121.915 53.7744 125.528 66.7763 126.231 79.5551C127.085 95.0536 122.851 110.501 113.985 124.222C106.884 135.207 97.8057 144.452 89.0533 152.802C79.595 161.823 71.2973 168.907 61.5366 174.162C60.5994 174.667 59.8692 175.059 59.449 175.523C59.3418 175.642 59.2448 175.775 59.1577 175.926C58.8447 176.468 58.6608 177.208 58.631 178.072C58.3913 185.321 67.2359 187.183 74.697 187.47C92.9443 188.169 112.229 181.235 127.614 168.449C141.612 156.824 152.719 140.399 159.76 120.965C169.127 95.0861 168.532 69.036 158.127 49.4925C155.198 43.994 149.913 36.5118 141.367 32.1038C136.918 29.8174 132.021 28.5616 126.831 27.2321L126.831 27.2321Z" fill="url(#paint0_linear_634_3615)" fill-opacity="0.15"/>
<path d="M88.7612 146.084C96.2653 138.763 103.783 130.726 109.75 121.487C118.048 108.66 121.992 94.26 121.199 79.8342C120.606 69.0588 117.796 58.0892 112.868 47.1606C113.189 53.4764 112.829 59.8129 111.599 66.0126C108.997 79.1041 102.256 90.4417 92.4866 99.4743C84.5983 106.764 75.3609 112.427 65.9912 117.679C57.4106 122.486 48.56 127.032 39.0161 129.396C38.0781 129.628 37.1123 129.848 36.3084 130.379C35.2312 131.091 34.5588 132.291 34.1975 133.532C31.8453 141.574 40.7967 145.635 47.0497 147.497C60.608 151.534 75.3363 150.669 88.7615 146.084L88.7612 146.084Z" fill="url(#paint1_linear_634_3615)" fill-opacity="0.15"/>
<defs>
<linearGradient id="paint0_linear_634_3615" x1="43.0912" y1="74.419" x2="152.446" y2="137.555" gradientUnits="userSpaceOnUse">
<stop stop-color="#3F3F3F"/>
<stop offset="1"/>
</linearGradient>
<linearGradient id="paint1_linear_634_3615" x1="60.8759" y1="86.9005" x2="112.593" y2="116.76" gradientUnits="userSpaceOnUse">
<stop stop-color="#3F3F3F"/>
<stop offset="1"/>
</linearGradient>
</defs>
</svg>

<svg width="196" height="212" viewBox="0 0 196 212" fill="none" xmlns="http://www.w3.org/2000/svg"><path d="M126.831 27.232c-6.457-1.654-13.134-3.365-18.887-7.265-2.808-1.904-5.222-4.221-7.56-6.46-1.296-1.245-2.596-2.492-3.959-3.66-4.097-3.508-7.701-5.241-10.414-5.013-1.474.122-2.744.845-3.884 2.207-1.481 1.774-1.435 3.07-1.27 3.895 1.06 5.398 12.095 11.239 19.395 15.104 3.824 2.025 6.844 3.622 8.402 5.027 3.07 2.766 5.101 6.365 6.839 9.841 6.422 12.866 10.035 25.868 10.738 38.647.854 15.499-3.38 30.946-12.246 44.667-7.101 10.985-16.18 20.23-24.932 28.58-9.458 9.021-17.756 16.105-27.516 21.36-.938.505-1.668.897-2.088 1.361a2.358 2.358 0 00-.291.403c-.313.542-.497 1.282-.527 2.146-.24 7.249 8.605 9.111 16.066 9.398 18.247.699 37.532-6.235 52.917-19.021 13.998-11.625 25.105-28.05 32.146-47.484 9.367-25.879 8.772-51.929-1.633-71.472-2.929-5.499-8.214-12.981-16.76-17.39-4.449-2.286-9.346-3.541-14.536-4.87z" fill="url(#paint0_linear_634_3615)" fill-opacity=".15"/><path d="M88.761 146.084c7.504-7.321 15.022-15.358 20.989-24.597 8.298-12.827 12.242-27.227 11.449-41.653-.593-10.775-3.403-21.745-8.331-32.673.321 6.315-.039 12.652-1.269 18.852-2.602 13.091-9.343 24.429-19.112 33.461-7.889 7.29-17.126 12.953-26.496 18.205-8.58 4.807-17.431 9.353-26.975 11.717-.938.232-1.904.452-2.708.983-1.077.712-1.75 1.912-2.11 3.153-2.353 8.042 6.599 12.103 12.852 13.965 13.558 4.037 28.286 3.172 41.712-1.413z" fill="url(#paint1_linear_634_3615)" fill-opacity=".15"/><defs><linearGradient id="paint0_linear_634_3615" x1="43.091" y1="74.419" x2="152.446" y2="137.555" gradientUnits="userSpaceOnUse"><stop stop-color="#3F3F3F"/><stop offset="1"/></linearGradient><linearGradient id="paint1_linear_634_3615" x1="60.876" y1="86.9" x2="112.593" y2="116.76" gradientUnits="userSpaceOnUse"><stop stop-color="#3F3F3F"/><stop offset="1"/></linearGradient></defs></svg>
